P2
160 100
255
138
135
139
140
136
138
137
136
138
138
139
138
140
139
137
136
137
139
137
136
137
135
138
137
138
140
136
138
138
140
137
141
137
136
138
138
137
139
136
139
137
136
137
136
142
136
139
138
138
137
137
138
138
139
137
138
135
136
139
138
137
140
137
138
138
139
137
135
139
135
135
137
139
137
139
137
137
140
137
138
138
137
140
138
136
136
137
139
136
137
137
138
140
139
134
140
138
138
137
138
138
138
134
137
137
139
139
139
139
137
138
139
136
139
138
139
136
133
138
138
138
138
138
135
137
136
138
139
138
138
136
138
136
137
139
140
139
137
136
134
140
136
137
139
140
136
138
137
138
135
135
138
136
139
138
134
139
138
138
137

140
139
137
138
137
139
136
138
139
138
136
139
138
136
137
140
137
136
139
138
137
137
139
136
139
137
135
136
140
136
140
138
137
136
136
139
138
136
137
138
136
137
138
135
137
139
138
138
137
137
137
135
139
140
137
140
139
136
139
138
135
140
139
136
137
136
138
140
137
139
138
140
139
139
137
136
139
137
137
138
140
136
137
140
138
140
135
138
136
138
137
138
137
136
138
138
138
138
142
138
139
135
138
138
140
137
135
138
138
139
137
135
137
137
138
140
137
138
137
139
141
137
138
137
137
137
138
138
136
138
138
137
137
136
138
139
137
138
137
136
140
137
137
140
137
138
138
138
137
138
136
136
136
135
138
137
138
138
138
138

137
135
137
138
136
138
137
139
137
136
138
140
137
138
135
139
138
138
135
138
139
137
139
137
135
137
137
137
136
139
137
138
136
140
139
142
136
139
137
137
137
138
138
136
137
138
136
138
136
139
138
138
136
138
136
137
137
136
140
139
138
136
138
136
136
136
139
137
138
139
140
138
138
138
139
141
137
137
137
141
138
138
137
135
139
139
138
137
137
136
139
138
143
137
139
139
139
137
141
138
139
136
137
139
137
136
136
137
137
137
136
137
137
140
140
139
138
137
139
136
138
138
138
136
139
138
137
136
137
137
134
138
140
138
139
140
138
134
138
138
136
141
140
138
138
137
138
137
136
138
139
139
136
137
138
137
139
138
138
137

139
138
137
134
138
138
139
139
137
138
134
138
141
137
139
137
135
138
138
139
138
136
136
139
139
140
137
137
138
137
140
138
137
136
140
138
136
139
136
137
137
139
138
137
138
140
140
136
135
138
137
141
136
137
137
137
138
135
137
138
137
137
138
136
137
139
138
138
137
138
139
137
137
137
141
137
137
138
137
138
136
139
136
140
138
138
136
136
135
137
137
135
140
137
137
134
136
137
140
141
139
139
138
138
135
138
136
138
138
135
135
140
135
138
138
138
138
138
138
138
138
138
136
135
137
135
137
137
139
140
136
140
139
136
137
139
140
139
138
138
137
137
136
138
139
138
136
137
140
136
136
137
136
136
140
136
139
138
136
138

133
139
138
139
138
138
138
136
136
139
138
141
139
138
139
139
136
141
138
137
138
137
137
136
136
138
140
138
137
136
139
136
137
137
137
139
136
137
137
136
138
136
137
138
137
138
137
138
137
137
139
138
135
137
139
137
136
139
140
139
138
137
138
139
136
140
138
138
137
137
136
136
136
138
137
137
137
139
139
135
137
138
139
138
139
137
135
138
137
137
142
139
137
133
137
137
141
139
137
140
136
138
136
138
137
139
137
137
139
137
136
139
137
137
140
138
135
137
140
140
136
136
138
139
138
136
140
135
136
135
136
137
138
138
136
136
140
137
136
139
135
137
139
138
138
140
138
135
139
136
141
137
140
137
135
134
140
138
138
138

137
139
138
137
138
140
138
140
136
135
138
138
139
136
137
139
137
139
137
138
137
139
135
137
136
137
134
137
139
139
140
135
134
138
138
138
139
141
137
141
138
137
138
138
137
140
137
138
139
137
138
140
138
138
136
137
137
139
135
138
136
139
137
138
136
137
138
139
137
138
139
138
136
137
136
140
140
137
138
136
137
140
139
137
137
138
139
140
139
138
136
137
139
137
140
137
137
139
138
136
138
137
137
139
137
137
138
140
138
139
137
136
138
138
140
138
137
136
135
139
138
140
139
139
136
137
138
135
138
138
138
136
138
141
139
136
138
137
138
140
137
136
137
138
136
137
134
139
136
136
138
138
138
138
136
138
140
137
137
139

135
138
138
141
139
139
137
135
140
139
140
139
137
135
138
138
135
139
137
136
140
137
136
138
139
136
137
136
137
139
136
138
136
137
138
139
137
140
137
138
137
138
136
137
137
138
137
137
139
139
136
140
135
138
136
137
139
138
136
139
136
140
135
138
135
138
137
136
140
138
139
137
139
141
139
137
137
138
139
137
140
139
139
138
140
141
138
141
136
137
137
135
138
138
138
137
135
137
139
138
139
140
137
139
139
135
138
136
137
139
135
135
137
137
135
139
137
136
140
139
141
137
138
136
139
137
138
138
135
139
138
139
138
139
138
138
137
135
137
137
138
140
138
137
138
141
139
137
137
136
138
140
138
139
137
139
136
137
138
138

140
136
139
139
138
136
137
138
136
138
139
136
137
141
139
137
136
138
139
140
138
139
141
138
138
139
137
138
137
138
138
136
134
138
136
136
136
135
139
135
135
137
139
141
138
139
137
139
135
136
136
136
137
137
138
137
137
137
139
140
137
141
136
138
137
137
140
136
135
137
136
138
137
137
136
138
137
137
139
137
136
139
137
137
137
134
138
140
137
137
137
139
138
138
136
136
136
137
136
135
139
138
138
139
136
137
137
137
137
138
137
140
138
139
136
138
139
139
140
138
135
139
139
139
138
134
134
138
139
138
139
136
136
139
137
137
137
137
139
140
138
135
137
137
139
141
137
137
138
136
135
138
137
135
139
140
138
134
138
140

135
139
139
135
138
136
138
139
139
137
134
138
138
139
136
137
138
139
139
136
137
138
139
139
136
134
135
140
137
138
139
138
139
137
140
137
137
137
139
137
138
136
136
134
140
136
136
137
139
138
136
138
140
137
138
139
140
138
139
138
140
142
138
136
138
138
136
137
135
140
140
138
138
135
134
134
137
139
138
138
137
138
138
137
137
138
137
137
138
137
138
138
140
138
138
136
137
137
137
139
135
136
135
141
138
139
138
138
137
140
136
137
137
139
138
138
136
138
138
136
136
137
138
139
138
138
137
135
140
138
137
140
136
135
138
135
139
140
134
136
139
138
139
141
137
140
137
141
137
136
136
137
137
137
138
136
137
138
139
138

137
138
137
137
138
138
137
137
137
137
136
139
137
137
136
141
140
138
135
137
136
138
137
138
139
136
140
138
138
137
138
138
138
141
141
139
136
137
136
136
135
137
138
137
136
138
138
136
138
137
139
139
136
137
138
138
140
138
138
135
139
137
139
137
135
139
139
138
136
139
138
137
138
138
137
136
138
137
137
138
137
137
137
135
138
138
136
137
140
138
137
136
137
138
140
139
137
137
138
138
137
138
136
137
138
139
137
138
138
137
140
136
137
138
138
138
138
137
136
137
138
137
137
136
138
136
137
135
137
140
136
137
138
139
139
138
141
137
137
137
137
137
137
137
138
136
137
137
139
139
139
137
136
137
138
139
137
137
139
139

138
138
137
136
137
136
137
142
138
139
136
138
137
136
136
137
136
139
134
138
138
138
138
138
136
140
136
139
137
140
136
138
136
135
140
138
138
136
136
139
137
136
141
135
140
139
136
138
138
138
139
137
137
137
139
137
142
141
141
137
138
138
138
135
136
136
138
136
139
139
138
137
138
135
139
136
136
138
142
136
138
138
136
140
138
136
139
137
137
138
138
137
135
137
140
137
137
135
138
138
137
139
138
138
135
139
138
136
137
135
135
135
139
136
137
137
136
138
137
138
138
136
138
139
136
139
138
136
138
137
139
139
141
138
137
138
137
138
138
138
137
136
136
138
136
134
140
137
139
138
137
140
139
139
139
138
140
138
137
136

138
139
139
138
138
137
141
137
139
137
139
138
137
136
137
140
137
138
136
138
138
134
136
138
134
137
139
140
137
137
139
136
139
138
138
139
139
137
138
140
140
140
136
139
139
138
140
138
136
137
138
135
138
138
137
138
137
138
135
137
138
141
137
137
137
138
136
138
137
136
135
138
136
139
138
139
138
139
136
138
136
139
138
138
138
137
137
139
136
136
138
139
137
140
136
137
134
136
140
137
134
138
138
138
136
136
137
138
137
136
138
140
136
138
138
137
135
140
137
138
136
137
139
137
136
136
137
138
137
138
137
135
138
138
136
140
135
137
137
137
138
137
135
139
137
138
139
139
139
135
136
136
136
136
136
139
136
138
139
136

138
139
140
140
135
137
140
139
139
139
139
139
139
137
139
136
136
138
135
138
139
137
139
139
137
138
136
136
138
139
138
138
136
142
139
136
136
137
140
137
138
138
138
136
140
137
139
138
138
137
136
140
138
138
133
134
139
137
137
139
141
136
139
139
137
140
138
140
141
136
138
136
136
139
137
138
136
138
139
138
137
137
135
138
137
139
136
138
137
136
138
139
136
135
137
139
137
139
139
137
138
138
136
135
136
141
139
138
141
136
138
136
136
138
137
138
138
139
137
136
139
139
136
138
138
139
136
140
138
139
140
138
137
135
137
137
137
136
137
137
139
138
138
134
137
138
135
140
138
135
141
135
139
138
138
138
138
138
140
139

137
134
137
137
136
137
137
138
135
137
138
136
135
137
137
138
137
137
135
136
137
136
138
138
136
138
136
138
137
139
137
135
139
137
138
136
136
135
137
139
136
138
139
137
137
136
139
136
136
138
136
138
137
135
137
139
141
138
137
140
137
139
138
140
138
137
137
137
136
139
136
137
136
137
141
137
139
136
139
137
138
136
140
136
139
138
139
138
138
135
137
139
136
140
137
139
139
137
138
137
138
140
136
138
138
138
137
138
139
137
139
139
136
139
138
137
139
138
139
138
135
139
142
136
139
136
135
138
137
136
133
133
136
138
139
136
138
137
139
138
136
138
136
137
134
140
137
138
138
137
138
137
139
136
136
138
137
139
135
138

138
138
136
137
137
138
139
137
138
142
137
139
138
134
130
128
126
126
128
127
127
130
139
139
134
129
129
127
128
126
128
128
129
126
126
126
129
128
129
129
133
138
142
138
138
136
138
137
133
134
131
135
133
134
133
132
134
132
134
138
139
133
133
133
133
132
135
132
131
133
133
132
131
134
134
136
137
137
139
136
138
138
140
139
135
137
138
138
136
140
137
136
121
120
118
121
137
137
137
138
137
140
140
140
138
140
137
137
134
138
136
135
137
140
136
138
139
137
137
138
140
139
138
139
138
135
135
138
138
126
115
117
131
134
136
124
134
138
138
137
139
137
138
137
137
139
138
138
135
137
137
136
137
137
135
138
139
138
138
137

139
137
137
137
140
138
137
140
139
137
139
136
139
129
118
119
117
116
117
118
118
125
138
138
131
119
119
120
117
119
121
118
119
118
118
116
118
116
118
120
130
137
135
138
137
134
142
136
122
118
120
115
116
118
116
114
117
119
119
139
134
118
116
117
116
119
116
118
119
117
116
116
117
117
116
138
135
137
137
138
138
138
137
136
137
138
139
138
139
138
136
137
122
115
119
127
136
136
135
137
138
138
139
136
137
139
138
135
135
139
137
138
135
139
136
139
136
137
139
137
138
138
139
136
138
137
135
138
138
128
119
117
133
137
122
115
118
128
138
138
136
137
135
137
137
137
137
137
137
139
136
138
136
138
136
139
139
139
136
137

136
139
137
135
139
137
139
136
140
137
138
134
139
133
116
117
120
115
118
118
117
122
137
137
131
117
118
124
122
124
121
120
118
117
124
121
122
122
118
116
133
139
138
141
136
135
137
137
121
118
119
116
118
118
117
114
120
116
115
136
135
118
118
118
116
117
116
119
119
120
114
119
119
117
118
138
138
137
138
139
137
136
134
138
139
139
137
139
137
139
137
137
120
118
119
126
138
137
134
137
139
140
137
137
140
139
138
139
139
138
138
136
133
139
136
136
139
135
137
137
138
138
139
138
138
138
141
135
133
128
117
115
131
137
123
117
116
116
124
138
137
138
138
138
138
136
136
140
137
140
135
138
137
135
140
138
136
138
138
136

141
139
138
138
137
138
137
136
138
136
136
138
139
138
137
139
139
138
138
136
138
138
137
137
132
116
116
135
139
138
135
125
119
130
137
136
137
135
117
118
132
135
135
140
136
139
137
138
123
115
128
136
137
137
137
138
132
118
119
135
137
134
135
132
131
136
124
116
119
130
131
133
132
132
134
137
135
137
138
137
132
122
124
120
125
122
123
124
123
123
122
123
119
118
116
120
121
121
124
122
122
123
123
121
123
125
125
126
138
139
137
139
138
136
136
138
136
137
138
138
139
136
138
137
137
138
139
137
136
129
118
118
133
135
139
132
121
117
132
138
137
138
137
138
138
139
137
136
138
136
138
137
141
138
136
141
138
137
138
138

138
140
137
138
136
138
137
138
138
135
137
139
139
136
137
137
138
138
137
137
136
139
137
138
133
117
114
138
136
137
136
120
120
127
139
139
136
137
118
117
135
142
139
137
137
137
137
139
122
120
127
138
138
140
139
139
131
119
117
137
136
137
136
138
137
139
122
116
122
138
137
138
134
138
138
139
137
136
140
138
125
115
116
118
116
120
119
116
115
118
119
117
119
118
116
118
119
117
118
118
117
120
117
115
118
120
119
126
139
137
138
137
136
140
138
136
139
138
138
138
138
138
139
135
138
139
139
138
136
128
121
116
131
138
136
137
134
132
135
140
135
137
138
137
137
136
137
138
139
138
141
138
136
137
137
138
140
136
137
138

138
136
139
138
138
137
136
133
135
138
138
139
125
124
122
122
121
125
120
124
122
122
124
128
133
116
118
132
132
133
132
122
117
126
134
133
134
131
116
116
135
137
138
138
137
139
136
138
121
114
117
118
117
118
117
117
119
118
116
135
138
139
138
140
136
136
118
120
130
139
141
139
137
139
137
136
137
139
139
136
125
117
118
120
122
123
123
121
123
122
122
123
121
124
123
123
123
122
120
121
122
122
123
122
122
118
118
122
138
139
140
138
135
139
137
138
128
128
128
129
129
128
125
128
129
129
128
129
124
122
118
118
127
129
130
128
126
127
129
125
128
127
132
137
140
137
137
135
139
138
140
135
137
138
139
137
137
136
138
138

138
139
136
137
137
138
136
138
139
138
140
138
124
116
119
116
117
117
119
117
120
119
116
128
133
117
117
116
117
114
119
120
114
118
118
115
117
116
119
116
135
135
138
139
137
137
137
141
123
116
117
119
118
120
115
116
118
118
117
138
139
139
125
119
116
117
117
120
119
118
119
117
117
118
139
137
136
139
139
139
128
117
115
133
140
140
137
138
139
137
133
136
138
137
136
136
140
134
138
137
137
137
141
135
136
116
117
120
136
137
138
138
138
136
139
131
116
118
118
119
119
116
115
118
119
118
119
117
116
116
120
116
119
118
119
119
118
118
114
118
117
117
132
137
138
137
139
138
136
139
138
137
138
137
137
137
139
136
135
136

136
138
139
138
135
134
137
139
137
138
136
139
126
123
123
122
122
123
125
121
122
122
124
131
132
119
117
120
119
115
115
120
117
121
119
115
118
117
115
119
132
137
138
137
139
136
137
136
124
117
123
134
132
132
131
133
127
116
119
137
139
138
122
118
119
118
116
116
119
115
119
115
118
118
139
137
138
136
138
140
127
117
116
132
137
141
137
138
135
141
139
139
137
137
140
136
138
136
135
139
137
136
137
137
138
118
119
123
136
134
138
140
139
138
135
134
117
114
116
118
116
117
117
118
118
121
118
117
117
116
117
118
117
119
120
117
120
118
117
117
116
116
133
140
136
138
138
141
137
139
140
136
137
140
138
138
139
137
138
137

138
134
136
137
138
137
137
139
136
138
139
136
139
138
136
139
137
136
139
137
138
139
138
139
134
117
120
135
135
135
141
120
115
131
138
138
135
139
115
121
133
135
136
138
138
139
138
140
124
118
130
137
138
136
138
138
132
118
120
138
136
137
120
113
126
134
131
134
132
133
133
129
118
119
137
136
140
141
136
135
127
117
118
133
137
137
136
139
138
138
136
137
136
136
137
138
139
138
139
138
137
137
139
137
139
117
117
124
138
138
139
137
137
138
137
132
116
116
126
138
137
141
136
136
137
137
136
139
138
126
118
119
135
139
138
138
138
139
138
137
140
137
137
140
140
137
139
137
139
137
140
138
135
138
137
134
142
138
136
139

136
139
137
139
137
138
138
139
136
137
135
139
136
136
132
131
131
134
134
132
133
131
137
141
130
120
119
138
138
139
138
120
120
125
138
136
137
135
115
117
135
142
137
140
137
137
137
137
123
116
118
120
118
118
119
115
116
118
114
138
135
138
121
115
126
138
138
139
140
138
136
132
119
118
136
140
139
137
137
137
127
117
118
133
134
121
120
117
116
116
117
118
115
116
116
119
119
118
118
119
118
118
117
130
138
117
117
120
138
137
139
136
138
138
136
133
117
118
127
136
138
139
138
139
137
139
136
138
137
129
116
117
129
138
138
137
138
138
136
139
135
139
135
137
136
139
138
138
138
138
137
138
139
137
138
137
140
138
139
137

135
136
138
139
136
135
138
139
136
136
138
136
139
133
118
117
117
117
116
116
117
123
136
138
134
117
119
139
136
139
137
123
117
129
138
138
139
136
116
121
132
137
138
138
136
140
140
135
123
118
117
118
119
116
117
118
115
119
117
138
139
137
120
116
124
127
126
128
127
126
128
127
118
117
138
137
140
136
140
140
139
140
136
135
133
119
116
120
121
117
116
115
116
118
120
118
117
117
113
119
117
116
119
133
136
138
138
137
137
138
137
137
139
139
138
132
117
119
127
138
137
141
139
136
139
137
138
139
137
127
121
120
131
139
138
139
136
128
138
141
137
136
138
137
140
138
137
137
135
139
139
138
136
136
140
138
137
139
136
138

136
136
138
138
137
139
137
140
137
137
138
137
137
131
115
118
116
117
117
121
116
123
138
138
132
115
119
118
118
118
120
116
119
116
118
118
119
118
117
116
131
136
138
138
138
137
139
136
135
132
133
133
132
133
133
133
133
133
133
137
136
138
122
119
117
119
117
120
120
116
119
119
119
117
138
137
139
138
136
137
138
136
139
139
134
129
131
127
127
126
131
128
126
126
129
126
128
125
129
132
127
127
126
134
137
137
136
137
139
139
134
136
136
138
138
131
116
116
126
137
138
138
138
140
136
141
137
137
136
126
117
118
135
137
136
136
132
121
117
131
138
136
135
137
137
140
138
137
138
135
138
137
137
137
138
139
137
141
136
139

137
137
139
138
140
137
137
138
138
137
137
141
136
139
131
132
132
132
133
133
131
135
138
135
134
118
118
117
117
117
119
118
118
118
116
117
116
117
116
119
136
137
139
138
140
136
133
134
131
135
134
132
131
132
133
132
131
132
134
133
136
138
121
117
118
124
123
125
125
122
122
121
117
118
136
137
139
138
136
136
138
140
138
136
139
140
140
138
136
138
138
137
137
136
137
136
135
136
140
137
140
138
139
140
136
139
140
137
135
139
136
139
137
139
137
133
115
118
124
126
129
129
129
129
126
131
130
137
136
129
118
116
133
138
137
140
126
118
119
126
138
138
139
137
137
138
137
138
140
137
136
136
138
137
139
137
137
138
138
139

138
137
138
136
138
138
138
138
140
138
135
137
141
136
137
137
138
139
136
136
137
135
137
138
136
132
132
133
133
131
132
120
115
124
133
131
133
132
133
132
134
139
138
138
135
135
117
117
117
117
116
120
117
116
118
116
119
116
118
118
128
137
124
117
130
137
136
138
140
139
137
130
118
120
139
138
138
137
136
137
138
137
135
135
138
135
135
136
139
136
137
138
138
137
138
138
137
136
140
140
137
137
139
137
137
137
138
138
138
138
140
137
139
139
139
133
116
115
117
116
118
120
117
119
116
120
123
137
139
137
116
115
129
140
137
137
116
120
119
138
134
137
136
138
138
137
138
140
139
137
137
139
139
136
137
139
136
138
138
138

137
134
138
136
136
137
136
137
135
135
140
135
137
137
129
130
127
127
128
127
126
132
138
137
140
135
137
136
139
137
136
121
116
129
141
140
137
137
139
139
137
138
137
137
137
137
118
118
117
118
118
117
119
119
120
116
118
119
118
114
127
137
121
118
129
137
139
138
137
139
137
132
120
118
139
136
137
137
139
136
132
130
133
133
132
133
133
130
135
133
134
133
132
132
132
131
133
133
133
132
131
133
132
131
131
130
131
133
136
137
137
136
138
138
137
131
116
118
117
116
117
116
119
117
116
115
125
136
138
131
116
118
129
139
139
127
116
116
127
137
137
138
138
137
138
138
142
137
136
136
136
138
136
134
135
140
137
139
137
137

140
137
140
138
139
137
138
141
138
136
137
138
136
130
118
117
118
116
121
114
120
121
137
136
137
138
140
138
137
136
137
122
118
128
137
135
139
135
137
138
138
136
136
137
138
138
130
131
132
136
130
134
133
117
118
130
134
132
131
137
132
135
123
119
117
119
119
116
119
118
118
115
117
118
136
136
139
137
137
134
119
115
117
119
117
116
118
119
121
120
117
115
119
119
119
116
117
119
115
118
114
119
119
115
117
117
117
118
126
137
138
137
137
139
134
135
118
117
124
136
138
138
137
139
123
117
123
139
136
138
116
119
125
137
135
118
117
118
136
138
140
139
135
139
138
137
136
135
136
139
139
138
136
135
137
138
136
136
138
135

140
138
136
137
136
136
138
137
140
139
137
139
139
135
118
115
117
116
116
119
116
125
138
128
120
120
120
124
122
123
123
118
118
119
121
121
123
125
122
122
125
122
139
137
137
136
139
135
137
139
138
141
136
116
117
132
136
140
137
139
136
137
122
119
115
119
117
118
118
117
119
118
119
117
136
138
139
137
137
133
116
117
117
118
117
118
118
119
117
116
117
117
118
116
116
115
118
118
118
119
119
116
118
118
116
117
120
115
128
137
135
137
140
139
137
131
118
117
127
139
137
138
138
137
122
119
123
138
140
139
124
117
121
137
127
118
118
126
138
141
139
137
135
136
138
137
139
137
139
137
137
140
137
139
139
135
137
139
140
138

140
138
139
135
139
139
137
137
137
139
140
137
134
137
134
136
138
138
136
139
139
138
140
120
118
119
119
117
118
118
117
119
117
119
116
121
117
115
118
116
117
119
138
139
137
137
138
137
118
118
125
136
139
116
118
132
137
139
138
135
137
139
122
119
127
131
130
134
131
132
135
129
116
119
139
136
137
137
136
137
131
131
132
134
131
132
133
131
123
118
119
122
135
132
132
129
117
117
119
134
135
133
132
130
133
133
131
135
136
136
136
140
136
137
138
132
118
117
130
135
138
139
138
138
126
117
122
137
138
137
123
116
117
135
118
116
121
138
140
138
137
137
136
137
136
140
138
141
136
137
137
139
138
138
136
136
138
137
138
138

139
137
139
136
137
138
137
138
138
138
136
137
138
140
140
138
136
138
136
138
138
142
136
127
123
122
121
122
123
121
121
116
119
114
123
123
124
124
123
123
122
122
138
140
139
137
137
137
124
120
123
139
139
117
116
128
133
130
135
136
138
139
123
116
125
138
137
138
137
138
137
128
118
116
135
137
135
138
137
138
139
137
137
139
138
139
135
141
128
117
118
122
139
137
137
128
117
118
121
136
137
138
138
136
138
137
134
136
137
138
139
137
138
137
137
133
117
118
129
140
137
139
137
138
122
115
123
140
137
141
130
116
119
123
118
119
129
135
138
135
137
139
138
138
136
138
137
138
140
137
136
136
138
137
138
138
136
135
141
136

137
137
138
136
137
138
136
135
138
137
141
136
134
126
122
121
122
123
123
123
122
123
131
135
139
135
135
138
140
137
123
119
118
117
123
135
137
137
137
140
137
137
138
139
136
139
140
138
123
116
129
135
136
116
117
118
119
117
117
126
137
138
123
116
124
134
135
134
132
130
132
127
121
119
138
138
138
135
136
138
137
138
137
137
137
136
138
139
124
116
117
126
139
137
139
129
116
117
122
137
138
137
138
139
136
136
138
139
138
135
138
137
135
139
137
132
117
118
127
137
136
138
137
138
120
117
120
138
139
137
135
118
115
119
118
118
136
136
138
139
134
137
138
137
136
139
139
137
139
136
138
138
137
136
137
140
138
139
138
138

140
137
138
139
138
137
137
137
137
137
136
139
138
124
119
117
119
118
118
119
120
119
133
136
138
138
136
138
139
125
119
119
119
117
119
121
136
138
135
139
137
139
138
135
138
138
138
137
122
118
129
135
136
117
117
115
115
117
117
129
138
138
121
118
119
119
116
118
116
118
116
119
116
121
139
135
139
138
137
138
139
138
135
136
138
139
138
139
122
119
118
130
139
135
138
127
118
119
123
137
141
136
138
138
138
137
136
137
137
139
140
140
138
137
137
130
115
117
131
136
139
136
142
138
117
117
127
137
138
137
140
122
117
118
117
132
135
140
138
137
136
139
135
139
138
139
137
137
138
137
139
136
139
137
136
136
137
137
139
140

136
140
139
139
137
137
137
138
137
140
138
140
136
122
116
127
129
126
126
127
119
120
135
135
135
138
137
140
130
118
115
119
117
124
117
118
124
136
138
139
135
139
138
138
138
140
139
138
115
117
124
137
137
118
118
129
132
133
131
135
137
140
122
117
117
118
117
119
118
117
117
120
118
119
136
138
138
137
135
135
137
137
138
135
138
136
138
138
118
117
115
129
140
138
138
129
119
118
122
136
136
138
137
135
137
139
138
139
137
137
138
137
141
137
139
128
117
121
134
135
138
121
126
120
115
117
131
138
136
137
134
120
117
118
116
139
137
139
139
138
135
138
137
139
136
135
137
137
136
137
140
139
137
137
138
137
137
140
136
136

133
138
136
137
139
138
138
136
136
138
136
139
137
123
118
128
138
137
136
136
116
115
133
136
136
139
140
129
117
119
125
123
118
126
129
119
115
119
135
139
138
139
137
139
138
136
137
133
119
115
118
138
138
117
118
131
138
137
138
136
136
138
140
132
121
126
136
138
140
133
119
123
133
136
136
138
137
139
137
138
137
137
138
138
137
137
136
127
119
119
118
131
136
139
136
129
119
117
122
139
136
137
138
139
140
136
139
138
140
135
137
135
136
136
135
124
117
117
134
138
136
120
117
116
118
119
131
139
135
132
119
116
117
119
116
127
138
137
137
135
132
137
137
137
137
137
140
137
140
135
136
137
137
136
135
138
136
139
135
137

140
138
137
137
141
137
140
141
137
135
137
140
138
124
117
127
139
138
139
137
121
118
133
136
140
140
126
118
122
120
135
122
118
128
139
131
117
119
118
129
137
138
138
135
140
137
138
129
116
115
117
120
135
115
117
135
138
136
137
138
129
124
117
117
115
118
127
138
139
122
117
115
115
121
126
136
138
137
138
136
137
138
138
139
137
137
135
119
116
116
122
137
140
135
138
128
115
120
120
137
138
137
137
141
138
134
120
124
129
136
140
139
135
135
137
118
117
119
138
137
136
128
122
124
121
124
138
138
130
119
119
117
124
119
120
118
133
139
136
137
128
119
128
137
137
136
134
137
137
139
139
137
139
136
137
139
138
135
137
138

136
137
138
139
139
136
137
137
137
139
139
138
137
124
117
129
137
137
141
138
117
118
133
139
137
121
117
117
119
137
136
120
117
126
137
137
130
118
118
119
121
133
137
139
136
138
134
123
116
116
119
120
121
120
117
132
137
140
137
124
117
118
114
119
122
130
135
137
141
138
127
120
117
118
120
130
137
137
136
138
139
138
138
136
138
134
122
118
120
118
134
136
136
140
138
127
119
119
122
136
136
138
136
138
138
133
119
119
121
138
135
139
136
138
132
118
117
125
140
139
138
137
137
136
136
137
138
129
118
115
118
126
136
132
119
119
118
133
141
138
121
117
119
135
135
141
139
138
137
139
138
138
137
140
139
138
140
136
140
142

138
140
139
140
140
136
136
140
138
138
136
139
137
121
117
126
138
137
136
139
119
118
132
123
118
117
118
122
134
138
134
122
118
129
137
137
138
133
119
117
119
118
132
135
138
136
135
119
116
125
135
120
119
117
118
131
139
138
137
131
119
120
122
131
138
136
139
137
138
136
138
136
126
117
119
136
137
138
137
136
138
136
135
134
127
119
118
117
116
126
138
137
138
139
141
126
115
118
121
136
138
136
139
137
137
129
119
118
126
137
139
138
139
135
123
118
119
131
133
139
138
139
138
136
140
131
124
116
116
118
124
140
135
137
126
117
121
117
127
126
116
118
125
138
137
140
138
139
138
137
139
138
137
140
139
139
135
138
138
138

138
138
137
136
139
136
138
138
137
136
136
135
141
121
118
116
120
116
117
117
116
116
129
118
117
119
123
136
141
138
137
121
119
128
137
137
137
138
135
123
118
120
139
141
138
139
127
115
117
126
138
136
120
118
117
120
125
133
139
136
134
140
140
135
136
138
137
137
136
137
134
138
139
140
137
138
138
136
140
136
133
129
124
116
118
120
116
117
126
137
141
140
138
135
135
129
116
118
118
125
125
127
128
127
127
116
118
118
131
138
139
138
141
130
115
119
119
134
139
136
137
139
137
134
126
118
114
121
117
131
140
137
140
138
141
123
118
117
118
119
116
119
131
137
139
139
137
138
139
137
136
136
137
137
138
137
138
135
139
139

136
137
140
138
138
135
140
136
136
140
135
136
139
120
116
120
115
118
118
120
116
119
130
120
120
131
135
138
137
139
137
122
119
128
138
140
140
137
135
139
128
128
138
138
137
135
118
120
119
137
136
137
136
121
115
117
116
118
116
118
118
119
117
116
117
118
117
118
121
118
119
119
116
119
117
124
138
138
137
135
117
118
119
121
116
119
118
134
136
137
137
136
138
137
138
129
117
118
118
118
120
118
118
117
116
115
118
118
138
139
138
139
138
118
119
116
128
138
135
139
136
138
136
120
117
116
116
121
131
138
139
136
138
136
140
136
126
118
117
116
118
121
139
137
136
138
138
137
139
138
137
136
135
138
138
139
136
138
137
134

137
140
137
139
138
138
140
139
138
135
139
136
139
122
116
126
132
134
132
129
115
116
133
135
139
136
138
138
136
137
136
124
115
128
140
139
139
136
139
137
136
139
136
137
136
135
124
115
128
139
137
142
140
137
132
123
119
119
118
119
117
118
117
119
120
116
118
117
116
120
119
118
119
118
119
127
142
136
138
139
123
117
120
116
117
125
137
135
138
137
137
139
138
139
136
135
117
118
118
119
117
117
116
116
116
116
118
130
138
140
135
136
137
133
121
123
137
136
139
138
136
140
135
128
119
117
123
139
137
138
140
139
140
136
139
138
137
130
128
117
121
133
135
139
138
135
139
137
137
135
139
135
138
137
138
137
137
136
136
139

136
138
136
138
140
139
137
135
136
137
137
137
141
123
117
128
136
137
140
138
122
123
133
137
138
137
138
137
140
136
138
123
117
127
134
137
138
136
137
137
137
137
141
137
138
137
139
132
135
138
135
139
138
138
140
136
136
132
130
128
124
128
128
127
127
128
128
129
126
128
128
129
125
126
127
134
138
137
138
136
131
121
125
129
139
139
139
139
135
138
136
137
136
137
136
140
135
128
128
125
128
127
126
129
127
129
135
136
138
138
140
140
138
137
136
134
136
138
138
139
137
136
137
136
127
136
138
140
138
138
135
138
136
137
139
137
138
137
134
136
140
139
133
138
137
137
136
138
140
138
137
135
139
137
138
138
139
139
135
136

136
139
138
136
139
138
136
137
139
138
139
136
141
140
137
140
137
136
137
141
138
137
136
137
137
138
138
138
138
140
136
137
139
139
136
137
136
139
137
139
139
137
137
137
138
138
139
140
138
139
137
136
137
136
137
135
138
136
138
137
136
138
138
137
137
139
140
136
137
138
137
136
139
136
140
136
137
136
138
137
138
138
138
136
137
137
139
135
138
138
139
138
137
136
135
135
137
135
137
139
138
137
137
135
138
138
136
135
137
137
138
138
136
137
137
138
136
136
136
136
138
138
135
137
139
136
137
136
139
138
139
137
138
137
138
137
139
140
138
139
137
137
137
138
135
137
137
137
136
140
135
135
136
138
137
139
137
138
140
137

138
136
137
137
137
136
139
139
137
138
137
136
137
138
137
139
137
134
137
138
137
138
137
138
136
140
138
138
138
140
137
139
138
140
136
137
138
139
137
134
139
137
138
136
139
137
135
137
138
137
136
139
138
137
137
139
139
138
137
137
136
137
136
138
139
135
140
136
137
139
137
139
135
137
138
136
136
138
135
138
136
139
140
139
137
138
138
136
137
136
138
140
138
138
135
136
137
140
134
139
139
139
136
138
137
135
137
137
135
138
139
138
137
136
138
139
136
137
137
138
135
137
134
137
137
136
137
140
138
137
138
138
137
138
136
139
136
139
137
137
137
138
140
136
135
137
137
138
135
135
135
138
139
138
136
137
139
136
136
137

140
138
139
138
137
141
137
137
137
138
137
140
139
137
138
137
136
137
140
141
138
139
137
137
136
140
140
139
136
136
139
137
137
139
139
136
137
138
140
136
136
137
137
140
138
138
139
138
135
137
136
136
138
139
138
136
137
140
139
139
138
137
138
136
135
136
137
137
134
138
136
140
138
137
137
138
135
136
137
138
139
137
138
138
138
139
136
138
137
138
136
141
137
136
136
138
136
137
137
138
136
137
140
140
138
136
137
136
137
137
138
139
138
140
137
138
136
139
137
140
137
140
138
137
135
138
139
137
137
137
136
137
140
136
139
137
136
137
137
136
136
138
138
136
136
136
139
137
137
137
138
135
134
136
139
137
135
141
137
138

139
139
137
135
138
139
139
138
136
138
138
135
135
140
138
138
139
137
139
138
138
136
139
140
139
139
138
136
137
139
141
138
136
139
140
139
137
137
137
136
139
138
139
139
141
138
137
137
138
135
136
138
136
138
138
135
140
138
137
136
140
136
140
137
137
137
139
137
136
136
139
138
138
140
137
137
135
136
137
134
136
138
135
138
140
139
138
140
138
140
136
139
138
138
136
136
136
139
135
138
140
137
137
138
136
137
137
138
140
138
138
136
141
136
138
138
137
140
139
136
136
140
139
137
137
136
138
138
138
139
138
137
137
141
138
136
138
137
139
138
137
137
141
138
139
136
137
138
138
136
138
137
138
137
137
138
137
135
134
139

138
136
138
137
139
137
137
138
138
137
139
136
138
136
136
136
137
141
137
139
137
138
137
138
137
139
135
138
136
138
138
137
140
139
136
136
138
136
138
137
137
136
136
137
137
134
140
137
139
139
139
138
138
139
135
136
137
136
138
138
136
136
138
137
135
137
137
137
139
138
137
136
140
136
139
137
139
139
136
139
139
137
138
140
135
138
135
136
138
136
138
137
136
136
136
136
139
138
140
136
138
138
138
136
136
138
138
139
138
139
138
138
138
136
139
138
137
138
138
140
137
137
139
140
137
138
136
138
137
139
136
137
139
138
139
139
135
139
141
137
136
135
138
141
138
138
138
136
137
137
138
136
136
139
140
137
136
138
139
139

138
137
138
137
138
138
139
139
136
139
136
138
138
135
136
138
136
138
137
138
140
138
137
140
139
137
141
139
138
139
137
138
136
140
138
136
136
138
138
138
138
138
139
139
136
138
139
139
137
139
137
136
136
139
137
136
140
138
138
136
137
135
137
138
141
137
140
139
141
138
137
137
137
136
138
139
136
138
140
137
137
140
139
137
140
138
136
136
138
138
137
136
136
137
139
137
138
137
137
139
138
139
139
137
135
139
138
137
142
134
136
137
138
138
140
135
138
137
135
138
139
137
140
139
137
137
137
138
137
138
137
136
138
137
137
137
139
139
137
139
139
137
135
140
136
135
138
137
138
136
137
139
139
137
138
138
136
137
137
135

141
136
136
138
137
139
137
137
138
138
137
138
136
138
140
138
139
138
137
138
139
139
137
136
138
135
138
138
136
134
137
138
139
138
138
140
139
140
137
135
137
138
136
139
139
137
136
136
138
137
138
140
138
138
138
136
138
138
139
139
137
135
139
138
139
137
138
136
139
134
139
139
136
138
133
137
136
136
138
136
138
137
137
136
134
138
136
139
139
138
139
138
136
137
140
139
136
139
136
137
137
140
138
137
139
135
140
137
137
137
135
140
139
137
136
139
135
140
139
137
137
141
138
135
138
137
139
138
137
136
140
139
140
139
137
136
137
136
138
136
137
137
138
136
136
135
137
139
136
137
139
136
136
139
135
138
138
136
138
138

137
138
138
137
139
136
139
140
138
141
139
137
137
140
136
137
140
137
134
138
136
136
139
140
137
136
137
140
138
139
138
138
139
140
137
140
135
135
137
137
142
138
138
137
138
138
137
136
137
139
140
138
139
138
136
139
139
137
138
134
138
139
138
138
139
140
138
136
138
137
137
137
137
137
137
140
139
139
137
138
136
135
137
138
138
138
140
134
137
137
139
136
139
138
139
140
136
135
140
134
138
137
136
137
138
138
139
136
138
134
136
137
136
138
137
136
138
136
140
137
138
139
136
139
139
138
139
142
141
137
139
137
138
138
138
135
137
136
139
141
139
137
134
139
136
140
137
136
139
136
140
136
139
137
135
139
138
137
136
136

137
136
140
137
139
138
137
138
136
137
136
135
139
137
138
139
139
136
138
139
137
141
139
137
135
136
138
140
137
140
137
139
139
139
139
139
137
138
136
139
138
137
140
135
138
136
140
139
138
139
135
140
138
138
137
137
141
140
137
136
137
137
137
136
138
138
138
137
135
137
138
138
137
136
138
137
139
139
138
138
137
140
139
139
135
136
139
139
136
137
136
138
137
136
140
136
136
136
136
138
136
137
138
137
137
137
139
140
137
137
138
138
136
135
137
136
138
136
137
137
138
139
138
134
136
139
140
136
138
138
141
136
139
140
137
137
135
140
137
138
137
136
137
135
137
141
134
136
138
139
137
138
139
139
140
140
137
140
138
135

137
137
137
136
138
138
138
136
139
138
138
138
138
136
139
137
137
138
138
138
140
137
136
136
138
137
137
139
138
134
136
139
135
138
137
137
138
136
137
137
136
137
136
138
140
139
137
139
137
138
138
137
138
137
135
136
139
139
138
138
136
138
137
136
138
140
139
138
139
138
139
139
137
136
136
138
138
139
138
139
135
136
139
139
137
138
137
138
136
137
137
141
139
138
136
137
140
138
138
137
137
137
136
140
135
136
140
139
137
136
138
136
139
138
139
136
136
137
137
133
139
136
135
137
137
140
137
138
139
138
139
138
138
136
136
139
140
137
140
139
136
136
138
139
137
141
137
140
140
137
138
138
139
139
137
137
140
137
136
137

138
137
138
137
136
137
139
139
140
137
137
139
138
138
139
136
139
137
135
136
138
139
138
137
136
140
139
138
140
138
135
139
139
137
135
135
137
138
138
138
138
135
138
137
137
136
138
136
137
140
136
138
136
138
143
137
137
137
136
137
135
140
137
137
135
138
137
136
139
138
135
136
140
135
137
139
139
140
140
136
138
138
138
136
138
135
137
138
136
138
138
138
137
138
138
138
137
138
138
138
136
138
137
136
136
138
138
138
139
136
138
139
136
138
137
135
139
136
139
136
137
135
137
137
138
134
136
136
136
138
139
137
137
138
136
137
139
137
138
137
139
138
142
138
138
138
136
136
137
136
140
138
135
133
137
136
135
135
140
138

140
140
137
137
138
139
141
139
138
138
136
139
138
138
138
137
137
138
137
138
139
137
136
137
134
136
140
135
138
139
140
138
137
141
138
136
136
137
139
137
135
137
139
138
139
140
137
138
138
136
139
136
140
137
137
137
137
138
136
138
135
136
137
139
140
136
137
138
140
139
137
138
136
137
138
141
140
134
137
136
137
135
137
136
136
138
141
137
135
135
139
137
138
136
139
138
139
136
138
138
138
135
137
139
137
136
137
138
137
136
138
138
137
138
138
136
137
137
139
134
140
137
137
139
139
139
137
139
136
138
135
138
138
137
139
137
139
136
139
136
138
137
137
137
138
137
139
139
136
139
137
136
137
139
135
138
138
135
138
138

138
138
138
136
135
140
138
139
140
136
137
138
138
138
138
138
138
140
139
138
137
136
139
139
137
139
139
134
138
138
136
135
137
137
138
138
139
139
135
137
137
134
138
138
138
138
136
139
137
137
137
136
138
138
138
138
139
136
137
135
140
135
137
138
136
136
136
137
138
137
138
137
139
138
138
135
139
139
134
137
138
138
139
140
138
136
140
136
139
137
139
135
137
138
137
137
139
137
136
139
136
137
138
137
138
135
138
137
135
138
138
138
139
136
138
136
138
136
138
138
138
139
137
136
136
140
138
140
135
134
136
138
138
139
138
138
138
138
138
137
136
138
138
138
136
138
137
138
137
136
134
138
137
139
138
138
137
138
139
137

140
138
137
137
139
137
138
139
137
137
138
140
136
137
137
138
137
140
135
138
137
137
139
137
138
139
139
137
138
136
140
136
137
137
139
135
138
140
137
140
137
137
137
138
138
138
137
137
137
138
136
137
138
139
136
136
139
136
138
138
137
137
137
135
138
138
138
137
135
139
139
139
140
137
137
137
137
137
133
138
139
139
140
138
137
135
135
137
138
139
139
140
138
137
138
139
137
134
138
138
137
135
139
136
135
138
136
136
137
139
136
138
136
138
137
137
137
138
136
139
137
134
138
137
136
139
139
137
136
137
138
139
138
142
137
135
136
136
136
139
138
138
134
137
137
140
137
135
135
138
134
137
136
139
137
137
137
140
135
136

135
137
138
137
139
139
136
136
137
138
136
138
137
136
136
136
139
139
140
138
139
138
138
133
138
137
139
134
138
138
138
138
139
138
139
139
138
139
137
138
139
137
136
137
138
135
137
138
136
137
137
138
138
137
141
137
138
137
140
136
136
138
138
141
138
138
136
139
139
137
136
138
139
140
138
140
139
139
137
137
136
138
136
136
138
139
135
138
138
136
139
140
138
137
138
138
138
136
136
138
136
137
138
137
138
138
137
138
139
138
137
139
135
137
138
136
139
139
138
138
138
137
137
141
136
137
138
138
136
136
140
137
139
137
135
136
137
139
140
136
136
138
137
141
136
136
140
138
135
139
137
137
140
139
137
137
141
138
136
138

139
136
136
138
139
138
137
140
138
136
138
138
136
136
137
137
136
137
138
139
136
137
136
137
140
139
135
137
138
135
139
137
137
138
137
140
138
135
137
136
139
138
138
139
137
138
135
137
138
138
137
137
136
135
138
139
135
137
135
138
137
136
136
139
140
139
137
137
136
135
136
136
136
138
138
138
137
137
137
136
138
137
139
138
138
141
137
137
136
137
140
138
137
136
138
136
138
140
137
137
139
136
136
135
139
138
137
139
136
137
137
136
137
135
137
135
140
138
136
137
140
136
138
137
137
139
135
137
139
136
138
137
139
136
138
136
139
140
137
139
139
137
138
136
137
136
139
140
137
141
139
138
139
134
137
138
141
137
138
140

138
138
138
138
139
134
137
136
137
136
137
137
138
139
140
135
139
137
140
138
139
139
137
138
136
136
138
136
138
141
138
138
139
140
140
139
136
138
137
138
138
138
138
139
136
138
138
137
138
139
138
136
138
138
137
138
136
138
135
136
138
139
138
139
140
137
140
140
138
137
138
138
138
138
138
138
136
138
135
136
140
136
138
141
140
139
137
135
137
139
138
137
136
136
139
140
137
137
138
136
137
140
138
137
139
137
135
136
137
139
136
137
139
139
137
136
135
138
139
138
138
139
134
139
135
137
136
140
136
138
138
140
137
136
137
138
136
138
138
137
136
137
139
137
138
133
140
138
136
137
136
139
138
137
140
140
136
138
138
137

137
139
139
139
138
140
136
138
136
137
138
138
137
139
136
139
134
137
138
139
140
136
133
123
123
138
138
138
138
136
134
136
138
138
139
136
139
137
137
139
137
140
140
136
135
138
139
139
137
136
139
137
136
138
124
131
137
138
139
141
138
138
137
137
138
136
137
138
137
141
137
136
138
138
138
136
138
137
137
137
134
138
138
137
137
135
138
139
137
139
138
138
137
136
141
136
138
137
136
138
137
127
124
135
137
134
133
138
138
136
142
139
138
138
138
136
136
139
137
135
140
139
137
139
136
132
116
124
126
132
133
136
136
139
136
138
138
139
140
137
137
137
140
136
139
137
138
137
140
134
136
136
137
138
135
137
137
137
136
138

138
138
137
135
138
138
137
137
139
137
140
138
138
138
140
138
139
137
139
135
139
136
135
116
122
139
138
139
137
136
137
136
138
136
138
136
139
137
136
140
135
139
135
139
136
138
138
135
140
139
136
137
136
135
117
119
132
135
135
138
139
138
137
139
138
136
139
138
140
139
136
134
139
138
139
139
138
135
138
141
139
138
138
140
140
135
138
137
138
139
139
139
139
140
136
136
135
136
138
139
133
116
116
137
136
139
137
135
138
136
136
137
137
138
139
137
136
138
139
137
137
135
139
140
136
128
119
117
119
118
118
119
124
125
126
134
136
139
137
141
138
135
136
139
136
141
137
137
140
136
137
138
136
137
137
137
137
139
139
138

139
139
138
133
138
136
137
138
139
134
138
140
139
138
136
139
138
138
136
138
138
135
130
120
123
137
141
135
136
138
137
137
138
136
139
137
136
138
138
137
140
139
137
137
136
127
124
129
136
136
138
136
135
134
117
119
137
137
137
141
138
139
138
135
136
136
136
137
136
138
139
137
135
137
137
140
139
140
138
140
140
137
137
139
137
133
132
127
138
136
137
139
139
136
136
137
137
140
141
135
133
116
116
139
137
139
138
137
136
138
137
137
136
137
136
136
136
136
137
136
137
135
137
137
137
131
126
118
118
117
117
115
117
117
117
132
136
138
138
137
135
138
138
138
137
138
135
139
136
138
137
137
135
137
140
136
140
136
136
136

138
136
139
137
138
139
138
136
138
136
138
139
137
138
139
139
139
138
139
136
139
138
133
116
121
138
138
138
133
137
137
136
121
121
134
139
137
138
138
139
137
136
138
135
136
124
119
132
138
139
137
139
138
129
119
127
139
137
135
137
137
137
137
139
137
137
138
139
137
139
139
139
138
138
138
139
137
137
131
135
128
125
124
121
118
118
118
117
136
138
138
134
136
139
138
136
137
134
140
141
134
119
117
136
137
139
136
139
138
138
136
135
137
140
138
136
137
137
141
138
139
138
139
137
136
137
136
137
134
133
132
129
121
123
119
137
138
136
137
136
135
138
139
138
136
135
138
136
136
139
136
138
139
138
135
139
138
139
137
138

137
134
139
139
138
137
136
137
138
139
135
138
138
138
136
139
137
136
138
137
137
136
134
115
120
133
125
121
116
137
135
133
117
118
118
127
136
138
139
136
138
136
137
138
136
129
118
126
137
138
141
138
138
123
118
124
139
139
137
136
137
138
140
136
138
136
136
138
133
133
133
127
126
124
124
122
116
115
119
118
116
117
118
118
117
118
121
124
131
138
136
134
136
138
137
136
137
136
139
135
140
118
117
136
136
136
137
136
136
138
136
137
139
136
138
133
138
138
138
138
137
140
137
138
136
138
136
138
138
138
138
136
135
138
137
138
141
137
139
133
138
139
138
136
138
139
137
134
138
134
139
136
136
134
137
140
136
138
138
140

138
138
138
137
140
137
136
139
139
138
136
136
135
140
138
138
139
136
128
127
125
123
120
118
121
117
117
118
119
137
141
138
134
122
121
116
126
136
137
138
135
137
136
137
137
132
118
122
137
137
128
121
118
120
117
118
117
120
126
136
137
138
137
140
139
136
138
137
124
119
118
117
118
118
117
116
117
121
118
116
117
117
126
130
138
138
138
140
136
136
141
136
137
138
139
138
136
138
135
138
137
118
119
131
139
137
138
139
138
138
140
138
136
138
138
137
136
138
138
135
134
137
138
137
138
136
137
139
138
137
140
139
137
136
139
137
138
140
141
137
139
136
136
137
140
137
138
137
133
133
135
140
139
137
138
139
137
140
135
135

135
137
134
138
139
138
138
137
137
138
139
139
138
138
137
138
137
137
118
118
117
118
119
119
120
121
124
130
134
136
138
140
139
138
122
118
117
126
138
136
135
137
140
136
136
134
116
118
128
120
118
117
117
117
120
120
122
117
118
116
128
137
138
137
138
137
136
139
131
118
118
124
126
127
132
132
136
132
117
117
122
134
136
142
137
130
136
136
139
138
137
139
136
136
137
138
136
138
140
137
138
117
116
134
137
137
141
139
136
136
136
139
140
136
137
136
138
137
137
135
139
137
138
138
139
138
136
136
138
137
135
135
129
134
138
137
138
137
138
139
138
138
136
136
137
139
138
139
138
137
138
138
137
138
136
138
138
139
140
140

137
137
137
137
135
137
137
140
140
138
138
138
137
138
136
136
138
137
128
130
126
130
128
116
121
136
137
137
137
137
135
138
140
137
139
125
116
125
140
137
137
135
140
135
138
138
120
118
119
118
128
136
130
118
122
136
138
135
123
118
116
125
137
137
137
139
137
139
136
136
140
139
138
138
138
136
132
117
118
127
140
137
140
141
135
117
122
132
139
136
138
136
138
140
138
139
137
140
138
139
137
116
118
133
138
139
140
137
134
126
122
123
136
138
138
136
137
138
136
134
137
136
137
138
137
134
135
127
121
120
116
119
116
117
121
131
136
139
139
137
139
139
138
139
137
139
136
137
138
137
140
139
139
138
136
136
138
138
137
135

138
136
135
135
138
137
138
137
139
139
139
138
137
138
137
139
137
138
133
138
138
138
133
117
125
138
138
137
136
138
141
140
139
136
138
139
130
138
139
139
136
137
134
139
137
134
119
116
119
135
139
138
129
117
129
138
137
139
138
130
118
115
131
137
139
136
137
139
138
137
139
138
140
139
139
136
119
119
127
138
137
136
139
137
138
136
120
119
124
134
137
139
134
138
138
138
138
137
138
138
135
122
118
127
137
135
125
121
116
117
115
118
135
138
137
138
137
137
138
136
140
138
135
127
119
117
117
117
119
116
117
117
117
116
117
117
133
137
137
139
138
137
137
135
141
137
137
136
136
138
139
137
138
139
138
140
138
138
139
137

137
139
136
137
138
135
140
138
139
137
135
138
138
136
136
138
137
138
137
138
138
137
132
117
123
138
139
136
138
138
137
137
139
139
139
138
139
138
139
138
138
135
138
138
135
117
118
120
126
138
138
138
119
115
137
137
137
137
136
137
128
118
120
138
135
137
135
138
139
139
138
138
138
135
138
126
114
122
137
138
140
137
134
118
127
135
137
126
121
137
137
137
139
137
138
137
138
139
137
138
138
126
117
118
118
117
116
118
117
118
122
122
134
139
137
137
136
136
136
137
138
137
137
117
118
117
118
118
124
127
133
132
131
127
118
117
120
138
139
140
140
137
137
137
137
139
138
137
137
137
138
138
138
140
138
138
139
137
137
137

141
136
138
139
134
137
135
140
136
138
139
136
138
136
138
139
134
136
141
141
139
139
137
118
120
130
127
122
126
124
122
124
128
136
137
138
136
136
136
137
137
137
139
137
120
118
124
117
117
136
138
133
117
124
138
136
138
138
136
138
134
120
118
133
138
137
137
136
139
135
139
141
138
137
138
122
117
133
135
138
137
137
133
123
119
123
133
139
138
136
138
139
138
136
137
138
136
136
137
137
134
126
117
117
118
117
118
125
130
135
138
137
136
138
139
138
139
138
136
137
137
140
138
125
120
128
136
139
139
138
139
137
136
136
124
117
119
132
137
138
138
136
137
137
136
138
138
135
135
140
137
137
138
137
137
137
137
135
138
137

138
137
138
137
136
139
138
138
136
140
139
139
137
139
138
137
139
138
136
139
138
136
129
120
116
117
117
119
119
116
119
116
118
121
128
139
138
139
134
138
137
139
137
128
117
119
137
123
117
131
138
122
117
128
138
136
137
137
137
138
137
120
117
131
138
137
138
140
137
136
137
137
136
138
138
118
118
135
138
137
136
139
138
138
130
120
118
136
137
138
138
136
138
138
137
139
137
140
134
134
121
119
119
120
127
132
137
136
137
138
136
137
138
136
139
136
136
138
141
138
135
139
140
135
137
136
135
141
139
139
137
138
137
136
134
119
120
130
135
138
138
139
136
138
137
139
137
134
139
139
137
135
135
138
140
139
140
136
136
137

134
138
136
140
135
138
134
140
137
138
139
137
136
137
137
139
137
140
136
137
135
122
119
119
120
124
132
131
140
138
134
134
123
116
116
124
139
139
138
135
136
138
135
119
118
134
136
128
116
124
135
116
117
139
139
138
139
141
138
137
138
127
115
125
136
138
136
138
138
135
140
135
137
138
134
120
116
140
137
139
141
136
137
138
140
136
132
136
137
137
139
140
139
137
136
134
138
138
126
119
119
120
129
138
137
142
139
136
135
139
137
136
136
136
139
138
138
140
134
141
136
138
136
141
137
139
138
137
137
135
137
138
137
138
138
117
117
128
137
140
138
136
138
137
139
137
139
140
136
136
138
141
138
135
136
134
136
137
136
136

141
139
139
136
138
139
137
135
140
137
138
133
136
136
140
139
135
137
135
133
116
117
122
120
121
135
137
140
137
138
138
138
137
131
118
116
131
139
139
137
137
138
133
115
120
138
136
141
119
122
121
114
126
139
136
137
139
138
139
135
139
127
118
128
140
137
137
136
137
135
136
135
136
135
133
118
116
139
139
136
138
136
135
138
137
140
136
137
139
142
138
139
137
137
139
138
136
129
115
118
120
135
135
135
137
139
139
138
138
137
136
138
137
137
138
140
140
137
139
140
137
136
137
138
137
139
138
138
139
138
137
137
137
136
137
117
115
129
137
139
135
137
140
137
138
139
139
137
139
135
140
135
138
136
139
137
138
140
138
137

135
138
140
138
137
139
135
138
137
138
140
138
140
138
139
136
137
136
132
118
118
127
132
116
124
135
136
139
136
136
139
135
140
139
129
120
121
138
138
135
138
137
125
117
127
136
135
139
130
119
117
118
134
138
136
140
137
137
138
140
136
123
116
130
138
136
138
138
137
138
139
138
137
139
136
121
115
133
137
134
137
138
137
137
138
139
136
138
138
135
140
138
136
139
141
139
133
118
120
124
137
138
133
135
140
137
137
139
139
139
140
138
139
137
137
138
136
137
137
137
140
137
136
140
137
136
138
136
137
139
137
135
137
137
133
118
116
134
139
139
139
138
138
138
138
133
136
138
137
139
139
140
137
138
138
139
135
137
138
138

140
137
141
136
139
138
138
139
136
138
136
137
137
138
138
137
139
137
120
117
131
136
131
119
122
137
138
139
136
139
138
139
138
140
133
119
117
139
138
136
137
137
124
117
132
138
138
139
134
117
119
119
135
135
137
139
139
137
140
139
137
119
118
132
137
136
139
139
141
138
137
138
138
136
136
120
117
131
134
139
139
139
136
137
136
136
138
140
137
137
135
137
138
138
139
135
120
118
119
137
134
138
140
136
140
137
138
137
136
138
141
138
138
138
136
137
136
137
137
137
139
137
138
136
137
137
137
139
138
137
139
140
137
137
124
116
117
136
137
137
138
138
138
137
138
137
139
137
137
137
140
138
137
138
136
135
140
139
133
135

139
138
135
139
136
137
138
137
138
136
137
135
137
141
139
139
136
132
117
121
139
136
133
117
122
138
139
137
139
135
139
138
138
138
138
118
116
137
137
135
138
135
125
116
132
136
136
137
129
117
120
116
122
135
136
136
138
135
138
135
122
116
119
136
136
139
137
138
140
137
139
140
135
136
136
127
115
118
137
137
138
137
136
140
140
137
137
138
137
139
138
139
135
137
137
136
122
119
126
135
137
137
138
138
138
138
137
135
139
139
137
137
140
137
136
138
139
139
137
135
139
137
137
140
141
138
138
137
138
138
141
138
134
132
118
119
125
139
138
138
135
137
138
139
137
136
133
137
139
140
136
138
137
138
139
140
136
138
136
137

141
138
135
140
140
136
135
140
135
137
140
138
139
137
133
134
138
126
116
130
137
138
133
118
120
139
135
135
124
133
139
137
138
137
132
117
119
138
137
139
137
139
128
117
123
138
138
134
118
117
129
120
120
131
136
139
138
139
140
123
118
120
131
139
139
139
138
137
139
137
140
137
136
136
138
136
119
116
119
132
135
134
138
137
135
137
137
135
138
140
138
139
138
136
137
137
127
119
121
137
140
137
138
137
138
139
138
137
135
138
138
134
137
140
139
137
139
136
138
137
140
137
134
139
139
139
136
136
137
138
137
139
134
118
116
117
134
140
138
137
137
136
134
136
137
137
138
140
141
139
137
140
138
138
138
137
137
139
138
138

136
136
138
137
138
139
136
138
137
136
136
140
139
139
138
137
141
126
117
134
139
138
133
119
123
139
138
126
115
121
135
137
140
135
127
116
122
137
136
135
138
137
136
120
116
125
124
118
116
129
138
133
133
138
136
140
139
132
120
121
121
123
138
140
138
139
139
137
137
140
138
137
136
137
138
137
133
119
117
119
122
125
132
136
138
138
138
137
137
139
135
137
135
137
135
139
124
115
114
128
138
137
137
138
136
138
137
139
137
136
138
137
137
139
136
137
138
136
136
137
137
135
137
138
140
134
137
136
137
141
136
130
117
117
116
132
138
136
138
136
138
136
139
138
135
138
138
137
138
138
138
139
135
138
139
136
135
136
138
136

137
141
136
138
140
138
140
138
138
137
140
136
138
137
138
138
136
130
118
128
137
136
125
120
128
139
139
138
120
119
118
125
126
120
117
116
132
139
139
138
136
137
138
130
119
115
120
116
126
138
137
136
139
138
139
126
122
118
116
119
127
135
137
141
139
134
137
137
138
138
136
138
138
138
138
137
136
135
121
117
116
117
115
117
116
122
137
138
138
138
139
137
138
139
137
139
137
119
116
121
117
118
117
117
116
117
115
118
119
118
117
123
136
133
137
139
140
138
136
138
140
136
136
141
138
139
141
138
139
129
119
119
117
118
127
138
132
140
137
136
137
135
138
140
138
137
137
139
137
138
134
137
139
137
138
140
139
139
135
137

138
137
135
136
136
139
137
138
137
136
134
140
138
138
140
137
138
136
118
117
126
119
119
120
133
138
140
140
132
120
117
116
120
119
120
133
139
138
138
139
137
137
138
135
135
127
128
134
136
136
137
136
141
137
137
135
118
120
126
136
138
139
136
137
136
137
136
137
139
139
136
136
136
135
136
136
136
139
139
131
127
121
116
117
117
126
139
139
138
138
138
137
138
140
138
137
136
134
122
117
119
116
120
116
118
121
116
117
115
119
117
123
138
139
137
140
138
140
137
137
136
137
138
135
137
139
136
122
119
120
119
115
119
129
139
137
138
136
137
138
138
138
140
137
139
136
137
138
137
138
138
138
137
135
139
135
138
137
137
138

136
138
137
137
139
136
138
136
141
138
137
139
139
139
138
137
138
138
130
119
118
120
118
130
136
138
139
138
137
140
135
126
127
129
136
137
136
141
135
138
139
138
138
137
135
138
138
136
134
139
137
138
135
137
140
137
132
134
136
135
139
139
138
138
137
137
139
136
137
137
139
138
138
138
136
137
138
139
137
137
138
137
136
132
131
134
137
139
139
139
141
135
136
135
139
137
137
136
137
136
133
132
134
133
134
132
132
132
135
133
132
135
138
137
138
136
135
135
138
138
137
137
141
138
138
139
136
126
116
118
118
127
136
137
138
141
138
135
142
137
137
137
138
138
136
139
136
137
139
136
136
137
135
135
139
137
138
137
137
138

138
137
135
135
137
137
136
138
139
137
135
139
136
137
138
138
137
134
137
135
132
131
140
136
138
137
138
137
138
136
137
138
140
138
137
137
137
136
137
137
138
137
138
136
137
139
136
139
137
137
139
136
137
137
139
139
138
138
137
137
139
137
137
139
137
138
138
138
137
136
138
138
138
138
137
137
139
137
137
139
138
139
140
139
136
134
138
137
136
139
137
136
134
139
138
136
137
136
136
135
137
137
137
140
138
138
140
137
139
139
139
138
137
138
136
137
138
138
135
139
138
138
137
138
135
138
140
135
123
130
136
138
137
136
137
138
138
137
136
137
139
139
139
138
139
140
138
138
141
140
138
139
138
136
138
136
136
138
138
139

136
138
138
138
138
138
139
136
135
137
137
139
139
136
137
137
139
139
135
138
136
138
139
137
139
139
137
136
136
138
137
138
136
137
140
137
137
140
138
139
139
138
136
136
137
137
136
139
134
137
136
139
138
136
137
139
140
138
138
138
136
136
139
138
138
139
135
139
136
137
137
137
135
138
139
139
138
135
140
135
136
138
138
139
138
138
140
137
138
140
138
137
140
135
137
140
140
139
136
137
137
139
137
138
139
134
139
138
141
136
137
138
140
138
138
138
137
136
137
138
137
137
137
136
137
137
139
138
136
139
138
135
139
139
137
137
138
139
135
136
135
135
139
137
140
138
136
137
136
141
137
137
138
138
135
137
136
138
139
137

137
137
136
139
139
137
137
137
136
137
140
138
137
138
137
135
136
137
138
138
137
136
139
137
139
139
138
138
136
138
137
136
137
139
137
139
139
138
137
135
135
139
136
139
138
138
138
136
139
137
140
138
137
137
137
137
138
136
139
136
138
138
138
137
138
140
139
138
138
136
137
135
138
137
139
137
138
138
133
135
138
137
138
138
136
140
140
138
140
138
140
137
137
138
139
139
140
135
138
135
136
139
138
139
138
140
138
138
137
137
137
140
139
136
140
136
135
137
139
137
140
137
137
138
136
135
136
136
139
138
136
138
138
139
137
137
137
139
137
139
138
137
138
137
136
137
137
137
138
138
137
138
137
137
138
138
137
139
141
139

138
135
138
138
137
138
138
139
138
136
137
138
138
138
138
137
138
141
136
137
137
138
136
140
138
135
138
137
139
139
139
138
139
138
137
141
139
138
138
138
138
140
138
134
134
139
137
137
139
138
139
138
137
138
138
140
139
137
136
137
136
139
136
138
136
138
137
137
139
139
136
136
136
135
136
137
138
137
137
138
137
138
137
139
137
137
135
139
135
137
138
138
137
139
138
136
140
137
136
138
141
135
138
136
139
138
136
137
138
137
139
140
138
140
136
135
136
136
136
136
137
139
139
139
140
138
137
136
138
140
135
137
137
140
138
140
138
137
139
135
137
138
137
139
139
139
139
141
138
139
138
138
138
135
137
138
137
137
143
138

137
137
139
137
135
137
137
137
139
136
137
138
137
137
137
140
137
137
139
136
139
138
138
137
136
140
138
139
137
140
137
137
136
138
138
136
136
135
136
135
137
138
138
138
138
136
138
137
139
136
137
138
138
137
137
137
137
137
136
137
136
141
138
138
138
138
138
138
137
136
138
136
139
139
136
140
138
136
139
137
139
139
139
138
138
139
139
137
139
138
138
138
138
139
138
134
135
137
135
138
138
138
138
135
139
135
137
138
136
137
136
137
138
134
138
139
138
137
141
136
136
137
137
138
138
139
138
137
138
137
138
136
138
136
136
137
141
137
138
141
139
139
137
140
139
139
137
136
139
139
136
137
138
138
139
139
137
138
137
138

137
138
138
137
139
137
138
137
139
138
137
137
136
140
137
139
136
135
137
139
137
140
137
141
135
136
137
138
136
137
138
139
138
140
136
135
140
139
137
139
137
140
140
136
137
139
140
137
138
138
136
135
136
135
137
138
139
138
139
135
137
138
139
136
134
140
136
136
137
139
140
138
139
139
137
138
137
138
136
138
137
136
137
138
139
136
138
139
135
138
138
136
138
138
139
138
142
136
140
137
136
138
139
137
140
137
138
137
139
136
138
136
136
139
136
139
136
140
137
140
139
134
137
135
139
135
137
137
139
139
140
138
139
136
137
139
140
135
135
136
136
137
138
139
137
137
138
138
135
136
137
137
138
136
137
138
140
140
135
137

137
135
138
138
137
136
136
136
138
139
140
137
136
139
138
139
137
137
136
134
139
139
137
138
138
135
136
138
137
137
138
142
137
138
137
137
138
139
136
140
141
137
137
139
138
136
136
137
136
137
137
140
137
137
139
137
136
137
138
138
137
137
137
137
138
139
136
139
137
138
136
138
136
138
138
139
139
139
136
137
136
135
139
135
137
140
137
136
136
136
136
139
139
140
138
141
138
135
136
138
140
136
138
138
137
140
136
136
140
137
137
139
137
136
138
138
137
137
138
137
137
139
138
137
139
138
137
137
138
139
137
137
137
139
139
136
138
138
138
136
138
139
137
136
138
138
137
139
136
136
135
136
139
140
138
136
137
135
136
135

136
140
142
139
137
137
138
135
140
140
139
137
138
137
137
136
137
136
136
137
137
139
136
136
138
137
137
138
136
138
137
138
135
139
138
136
138
137
140
138
137
136
136
138
140
136
138
138
137
137
139
139
137
138
135
138
139
139
136
136
135
139
137
137
139
140
137
138
137
138
139
137
137
138
138
137
137
139
138
137
137
137
138
136
138
138
137
135
137
139
136
139
139
140
138
135
137
138
139
137
138
136
137
138
137
137
137
136
137
138
134
136
139
136
137
138
136
138
135
137
136
139
139
139
138
139
138
140
139
138
138
138
140
135
136
139
137
139
136
137
137
140
138
137
137
138
136
136
136
138
140
137
139
140
136
136
139
137
136
135

136
136
136
138
139
138
138
136
135
140
137
138
138
136
139
137
138
138
137
137
140
139
140
138
139
138
138
136
136
138
135
137
137
139
138
138
137
138
137
138
139
136
136
135
138
138
134
136
140
139
138
137
137
138
139
138
136
140
138
137
139
138
137
136
140
137
138
138
138
136
136
137
139
138
140
138
138
136
139
137
139
136
138
139
139
138
138
137
138
137
138
135
138
137
136
137
137
135
136
138
136
137
138
136
136
137
137
137
137
139
137
138
139
134
139
141
138
139
137
139
137
136
134
138
138
140
138
139
136
137
138
139
136
136
136
137
137
137
138
134
136
136
138
140
135
139
138
138
136
139
138
137
138
140
136
141
139
137
139
137

138
139
137
137
137
135
137
136
139
138
141
137
139
138
138
140
138
138
138
138
138
138
136
141
140
138
136
136
136
136
140
137
135
138
139
138
135
138
136
139
137
140
139
138
138
140
139
138
138
140
138
139
139
137
142
139
141
139
140
138
140
139
137
138
138
140
138
136
139
137
138
139
138
137
137
137
134
136
136
137
137
140
141
140
140
138
138
139
139
139
137
135
138
138
135
136
140
135
136
141
137
136
136
140
138
139
135
139
138
137
135
138
137
138
137
137
138
139
138
136
138
139
137
138
137
138
135
139
138
140
136
137
140
137
137
137
137
140
137
137
138
138
136
138
137
137
138
138
138
138
137
137
138
135
135
135
137
138
138
138

139
137
138
138
135
138
137
138
137
137
137
139
135
136
137
140
138
136
138
138
138
139
140
136
135
137
137
137
140
139
139
136
137
137
138
140
138
135
139
138
137
138
136
139
136
138
139
141
138
139
137
136
139
135
139
137
138
137
135
135
137
138
138
138
137
139
138
138
137
135
135
139
138
138
137
140
135
136
138
136
135
136
137
138
137
138
139
140
137
137
137
138
135
138
138
138
133
134
136
137
136
137
137
136
139
138
138
139
136
138
139
138
138
138
136
137
140
134
141
136
139
139
140
137
138
136
136
136
137
136
138
137
139
140
137
139
139
137
139
137
140
138
137
139
139
137
137
138
137
138
137
138
137
138
135
137
139
139
138
139

138
137
140
137
138
134
139
138
137
137
137
139
137
139
137
135
136
137
137
138
138
139
137
139
139
138
137
137
135
137
137
139
137
138
140
140
137
137
139
138
137
139
136
138
136
139
139
138
136
138
139
140
138
137
141
140
137
138
138
137
141
137
135
136
138
137
140
141
137
136
138
140
136
137
138
135
136
138
135
138
139
136
137
138
140
136
138
138
138
137
139
138
137
136
140
138
137
140
137
137
137
139
138
136
137
138
138
136
138
141
138
137
140
137
139
139
138
138
137
138
138
140
138
136
139
139
137
139
137
137
137
138
137
139
136
137
139
137
137
140
135
135
138
138
137
138
138
136
136
140
136
138
136
139
136
137
138
139
137
134

138
139
136
136
136
137
137
137
138
136
139
139
136
138
138
135
139
138
139
138
134
139
138
139
139
138
136
136
136
139
139
139
139
135
136
137
138
138
136
140
136
138
138
136
139
138
137
137
139
137
138
139
136
136
137
137
139
137
138
138
137
137
139
140
137
142
138
138
136
136
137
140
137
136
137
139
136
136
137
138
135
133
139
139
139
137
139
137
137
138
137
139
138
140
138
137
139
135
138
140
139
138
138
138
137
139
139
139
136
138
137
138
138
134
138
137
138
136
138
137
138
138
138
138
136
137
135
139
138
136
139
139
136
136
138
139
137
137
137
138
138
137
138
137
140
139
139
137
135
138
138
141
137
140
138
136
139
139
137
142

139
136
141
135
138
136
135
134
136
139
135
139
136
138
138
141
137
139
139
139
139
140
138
134
136
139
140
137
137
136
138
140
138
134
138
140
136
136
139
137
141
139
136
140
140
138
139
138
139
139
139
140
138
137
140
138
134
137
139
139
139
136
137
137
137
138
138
139
138
137
138
138
138
136
136
140
140
139
138
136
137
137
136
138
136
136
136
137
138
138
138
136
136
139
139
136
138
135
138
136
138
137
135
140
139
138
138
137
137
141
139
136
134
135
139
138
136
136
136
138
135
135
137
137
136
136
137
136
137
137
137
137
137
139
139
137
139
139
137
137
138
136
138
139
139
139
136
138
140
138
138
137
137
136
138
137
138
136
138
138

137
140
136
138
136
138
136
140
136
139
137
139
140
137
137
138
140
141
138
140
141
139
137
138
137
136
138
137
139
136
137
138
137
137
138
138
136
137
138
135
137
139
139
138
136
138
137
137
134
137
140
137
141
139
137
140
137
136
138
139
136
139
139
141
137
137
135
143
137
136
135
139
136
138
139
138
135
137
139
137
138
135
139
138
138
136
137
140
139
137
136
137
137
141
137
139
136
136
139
137
136
137
136
138
134
139
139
137
136
140
139
138
138
136
138
140
135
139
138
138
139
136
135
137
138
138
137
138
139
137
136
138
136
135
136
136
140
138
140
139
138
136
138
134
135
136
138
140
140
137
138
138
136
138
134
136
135
137
136
138

136
140
141
139
138
138
134
137
139
138
137
139
137
139
136
140
139
137
140
139
138
138
136
138
137
138
136
139
138
138
138
134
136
138
137
138
138
138
137
135
140
138
138
137
142
138
137
138
137
136
136
137
136
137
137
136
139
140
139
139
138
138
139
137
135
139
138
138
139
138
138
138
138
137
138
136
138
139
139
139
138
135
137
136
138
142
138
136
136
137
139
137
139
140
140
137
136
137
139
136
136
136
136
138
139
136
139
139
139
137
136
137
137
137
141
139
139
139
136
136
138
138
139
136
137
138
137
136
138
137
137
136
138
137
138
138
137
140
139
134
138
140
139
136
138
136
137
138
141
139
138
137
139
137
137
140
140
137
137
138

138
137
138
137
140
138
139
139
137
138
137
139
139
135
138
139
139
138
140
140
137
138
138
138
138
136
139
136
139
136
138
135
135
138
136
136
138
136
136
137
135
137
138
138
137
138
138
136
136
138
136
139
141
136
140
138
139
138
139
138
137
139
137
137
137
136
136
139
135
138
136
137
136
138
136
139
140
137
139
137
138
137
139
138
137
138
138
137
138
138
139
139
137
137
138
139
139
138
138
136
136
141
138
138
137
136
139
134
137
138
137
136
141
139
138
136
137
138
135
138
138
139
137
136
138
139
140
138
141
137
139
136
138
137
138
135
134
138
138
139
137
135
138
136
137
139
136
136
139
139
138
138
137
137
139
139
137
137
136
136
